mobile/assets/icons/svgs/custom/clinic-alt-dark.svg

<svg fill="none" height="500" viewBox="0 0 500 500" width="500" xmlns="http://www.w3.org/2000/svg"><path d="m209.25 116.8v8.13h-24.25c-3.495.005-6.845 1.395-9.317 3.866-2.473 2.47-3.865 5.819-3.873 9.314v161.61h-8.12v-161.61c.005-5.65 2.252-11.067 6.247-15.063 3.996-3.995 9.413-6.242 15.063-6.247z" fill="#fff" stroke="#fff" stroke-miterlimit="10" stroke-width="3"/><path d="m213.22 124.93h-4v-8.13h4c1.043.052 2.027.503 2.747 1.259.72.757 1.121 1.761 1.121 2.806 0 1.044-.401 2.049-1.121 2.806-.72.756-1.704 1.207-2.747 1.259z" fill="#000"/><path d="m335.72 138.11v161.61h-8.13v-161.61c-.008-3.495-1.4-6.844-3.873-9.314-2.472-2.471-5.822-3.861-9.317-3.866h-24.28v-8.13h24.28c5.651.005 11.069 2.252 15.066 6.247s6.246 9.412 6.254 15.063z" fill="#fff" stroke="#fff" stroke-miterlimit="10" stroke-width="3"/><path d="m282 121.71c-.12-.557-.12-1.133 0-1.69.194-.915.697-1.736 1.426-2.323.729-.586 1.638-.903 2.574-.897h4.16v8.13h-4.16c-.936.006-1.845-.311-2.574-.897-.729-.587-1.232-1.408-1.426-2.323z" fill="#000"/><g fill="#fff"><path d="m299.29 284.17h-100.07c-1.043-.052-2.027-.503-2.747-1.259-.72-.757-1.121-1.762-1.121-2.806 0-1.045.401-2.049 1.121-2.806.72-.756 1.704-1.207 2.747-1.259h100.07c1.043.052 2.027.503 2.747 1.259.72.757 1.121 1.761 1.121 2.806 0 1.044-.401 2.049-1.121 2.806-.72.756-1.704 1.207-2.747 1.259z" stroke="#fff" stroke-miterlimit="10" stroke-width="3"/><path d="m299.29 259.41h-100.07c-1.043-.052-2.027-.503-2.747-1.259-.72-.757-1.121-1.762-1.121-2.806 0-1.045.401-2.049 1.121-2.806.72-.756 1.704-1.207 2.747-1.259h100.07c1.043.052 2.027.503 2.747 1.259.72.757 1.121 1.761 1.121 2.806 0 1.044-.401 2.049-1.121 2.806-.72.756-1.704 1.207-2.747 1.259z" stroke="#fff" stroke-miterlimit="10" stroke-width="3"/><path d="m299.29 236h-100.07c-1.043-.052-2.027-.503-2.747-1.259-.72-.757-1.121-1.761-1.121-2.806s.401-2.049 1.121-2.806c.72-.756 1.704-1.207 2.747-1.259h100.07c1.043.052 2.027.503 2.747 1.259.72.757 1.121 1.761 1.121 2.806s-.401 2.049-1.121 2.806c-.72.756-1.704 1.207-2.747 1.259z" stroke="#fff" stroke-miterlimit="10" stroke-width="3"/><path d="m286.06 99.61h-15.66c-2-9-10.49-15.82-20.63-15.82s-18.64 6.8-20.63 15.82h-15.83c-1.077 0-2.109.428-2.871 1.189-.761.762-1.189 1.794-1.189 2.871v34c0 1.077.428 2.109 1.189 2.871.762.761 1.794 1.189 2.871 1.189h72.75c1.077 0 2.109-.428 2.871-1.189.761-.762 1.189-1.794 1.189-2.871v-34c0-1.077-.428-2.109-1.189-2.871-.762-.761-1.794-1.189-2.871-1.189zm-4.06 33.94h-64.63v-25.82h15.39c.534.001 1.063-.103 1.557-.306.494-.204.942-.502 1.32-.88.378-.377.678-.825.883-1.318s.31-1.022.31-1.556c0-6.48 5.8-11.75 12.94-11.75s13 5.27 13 11.75c-.001.534.103 1.062.306 1.555.204.493.503.942.88 1.319s.826.676 1.319.88c.493.203 1.021.307 1.555.306h15.17z" stroke="#fff" stroke-miterlimit="10" stroke-width="3"/><path d="m112.23 155.57h10.88v203.32h-10.88z"/><path d="m376.89 155.57h10.88v203.32h-10.88z"/><path d="m153.86 155.57v10.88h-41.64v-10.88z"/><path d="m387.78 155.57v10.88h-41.64v-10.88z"/><path d="m112.76 348h274.49v10.89h-274.49z"/><path d="m244.24 349.62h10.88v61.05h-10.88z"/><path d="m309.42 410.67c3.005 0 5.44-2.436 5.44-5.44s-2.435-5.44-5.44-5.44h-119.48c-3.004 0-5.44 2.436-5.44 5.44s2.436 5.44 5.44 5.44z"/></g><path d="m123.11 310.61h253.78v37.39h-253.78z" fill="#daa900"/><path d="m112.77 299.73h274.48v10.88h-274.48z" fill="#fff"/><path d="m251.99 216.54c17.811 0 32.25-14.439 32.25-32.25s-14.439-32.25-32.25-32.25-32.25 14.439-32.25 32.25 14.439 32.25 32.25 32.25z" fill="#daa900"/><path d="m271.34 177.85v12.89h-12.9v12.9h-12.9v-12.9h-12.89v-12.89h12.89v-12.9h12.9v12.9z" fill="#fff"/><path d="m249.68 327.75c7.357 0 13.32-5.964 13.32-13.32s-5.963-13.32-13.32-13.32c-7.356 0-13.32 5.964-13.32 13.32s5.964 13.32 13.32 13.32z" fill="#fff"/></svg>

<svg width="500" height="500" viewBox="0 0 500 500" fill="none" xmlns="http://www.w3.org/2000/svg">
<path d="M209.25 116.8V124.93H185C181.505 124.935 178.155 126.325 175.683 128.796C173.21 131.266 171.818 134.615 171.81 138.11V299.72H163.69V138.11C163.695 132.46 165.942 127.043 169.937 123.047C173.933 119.052 179.35 116.805 185 116.8H209.25Z" fill="white" stroke="white" stroke-width="3" stroke-miterlimit="10"/>
<path d="M213.22 124.93H209.22V116.8H213.22C214.263 116.852 215.247 117.303 215.967 118.059C216.687 118.816 217.088 119.82 217.088 120.865C217.088 121.909 216.687 122.914 215.967 123.671C215.247 124.427 214.263 124.878 213.22 124.93Z" fill="black"/>
<path d="M335.72 138.11V299.72H327.59V138.11C327.582 134.615 326.19 131.266 323.717 128.796C321.245 126.325 317.895 124.935 314.4 124.93H290.12V116.8H314.4C320.051 116.805 325.469 119.052 329.466 123.047C333.463 127.042 335.712 132.459 335.72 138.11Z" fill="white" stroke="white" stroke-width="3" stroke-miterlimit="10"/>
<path d="M282 121.71C281.88 121.153 281.88 120.577 282 120.02C282.194 119.105 282.697 118.284 283.426 117.697C284.155 117.111 285.064 116.794 286 116.8H290.16V124.93H286C285.064 124.936 284.155 124.619 283.426 124.033C282.697 123.446 282.194 122.625 282 121.71Z" fill="black"/>
<path d="M299.29 284.17H199.22C198.177 284.118 197.193 283.667 196.473 282.911C195.753 282.154 195.352 281.149 195.352 280.105C195.352 279.06 195.753 278.056 196.473 277.299C197.193 276.543 198.177 276.092 199.22 276.04H299.29C300.333 276.092 301.317 276.543 302.037 277.299C302.757 278.056 303.158 279.06 303.158 280.105C303.158 281.149 302.757 282.154 302.037 282.911C301.317 283.667 300.333 284.118 299.29 284.17Z" fill="white" stroke="white" stroke-width="3" stroke-miterlimit="10"/>
<path d="M299.29 259.41H199.22C198.177 259.358 197.193 258.907 196.473 258.151C195.753 257.394 195.352 256.389 195.352 255.345C195.352 254.3 195.753 253.296 196.473 252.539C197.193 251.783 198.177 251.332 199.22 251.28H299.29C300.333 251.332 301.317 251.783 302.037 252.539C302.757 253.296 303.158 254.3 303.158 255.345C303.158 256.389 302.757 257.394 302.037 258.151C301.317 258.907 300.333 259.358 299.29 259.41Z" fill="white" stroke="white" stroke-width="3" stroke-miterlimit="10"/>
<path d="M299.29 236H199.22C198.177 235.948 197.193 235.497 196.473 234.741C195.753 233.984 195.352 232.98 195.352 231.935C195.352 230.89 195.753 229.886 196.473 229.129C197.193 228.373 198.177 227.922 199.22 227.87H299.29C300.333 227.922 301.317 228.373 302.037 229.129C302.757 229.886 303.158 230.89 303.158 231.935C303.158 232.98 302.757 233.984 302.037 234.741C301.317 235.497 300.333 235.948 299.29 236Z" fill="white" stroke="white" stroke-width="3" stroke-miterlimit="10"/>
<path d="M286.06 99.61H270.4C268.4 90.61 259.91 83.79 249.77 83.79C239.63 83.79 231.13 90.59 229.14 99.61H213.31C212.233 99.61 211.201 100.038 210.439 100.799C209.678 101.561 209.25 102.593 209.25 103.67V137.67C209.25 138.747 209.678 139.779 210.439 140.541C211.201 141.302 212.233 141.73 213.31 141.73H286.06C287.137 141.73 288.169 141.302 288.931 140.541C289.692 139.779 290.12 138.747 290.12 137.67V103.67C290.12 102.593 289.692 101.561 288.931 100.799C288.169 100.038 287.137 99.61 286.06 99.61ZM282 133.55H217.37V107.73H232.76C233.294 107.731 233.823 107.627 234.317 107.424C234.811 107.22 235.259 106.922 235.637 106.544C236.015 106.167 236.315 105.719 236.52 105.226C236.725 104.733 236.83 104.204 236.83 103.67C236.83 97.19 242.63 91.92 249.77 91.92C256.91 91.92 262.77 97.19 262.77 103.67C262.769 104.204 262.873 104.732 263.076 105.225C263.28 105.718 263.579 106.167 263.956 106.544C264.333 106.921 264.782 107.22 265.275 107.424C265.768 107.627 266.296 107.731 266.83 107.73H282V133.55Z" fill="white" stroke="white" stroke-width="3" stroke-miterlimit="10"/>
<path d="M112.23 155.57H123.11V358.89H112.23V155.57Z" fill="white"/>
<path d="M376.89 155.57H387.77V358.89H376.89V155.57Z" fill="white"/>
<path d="M153.86 155.57V166.45H112.22V155.57H153.86Z" fill="white"/>
<path d="M387.78 155.57V166.45H346.14V155.57H387.78Z" fill="white"/>
<path d="M112.76 348H387.25V358.89H112.76V348Z" fill="white"/>
<path d="M244.24 349.62H255.12V410.67H244.24V349.62Z" fill="white"/>
<path d="M309.42 410.67C312.425 410.67 314.86 408.234 314.86 405.23C314.86 402.226 312.425 399.79 309.42 399.79H189.94C186.936 399.79 184.5 402.226 184.5 405.23C184.5 408.234 186.936 410.67 189.94 410.67H309.42Z" fill="white"/>
<path d="M123.11 310.61H376.89V348H123.11V310.61Z" fill="#DAA900"/>
<path d="M112.77 299.73H387.25V310.61H112.77V299.73Z" fill="white"/>
<path d="M251.99 216.54C269.801 216.54 284.24 202.101 284.24 184.29C284.24 166.479 269.801 152.04 251.99 152.04C234.179 152.04 219.74 166.479 219.74 184.29C219.74 202.101 234.179 216.54 251.99 216.54Z" fill="#DAA900"/>
<path d="M271.34 177.85V190.74H258.44V203.64H245.54V190.74H232.65V177.85H245.54V164.95H258.44V177.85H271.34Z" fill="white"/>
<path d="M249.68 327.75C257.037 327.75 263 321.786 263 314.43C263 307.074 257.037 301.11 249.68 301.11C242.324 301.11 236.36 307.074 236.36 314.43C236.36 321.786 242.324 327.75 249.68 327.75Z" fill="white"/>
</svg>
